dataset/lapce/icon.svg

<?xml version="1.0" encoding="UTF-8" standalone="no"?>
<svg
   viewBox="0 0 128 128"
   style="display:inline;enable-background:new"
   version="1.0"
   id="svg11300"
   height="128"
   width="128"
   xmlns:xlink="http://www.w3.org/1999/xlink"
   xmlns="http://www.w3.org/2000/svg"
   xmlns:svg="http://www.w3.org/2000/svg"
   xmlns:rdf="http://www.w3.org/1999/02/22-rdf-syntax-ns#"
   xmlns:cc="http://creativecommons.org/ns#"
   xmlns:dc="http://purl.org/dc/elements/1.1/">
  <title
     id="title4162">Adwaita Icon Template</title>
  <defs
     id="defs3">
    <radialGradient
       id="radialGradient8"
       gradientTransform="matrix(0.033236,0,0,0.03837738,150.8927,10.5714)"
       cx="1546.7766"
       cy="1340.0753"
       fx="1546.7766"
       fy="1340.0753"
       r="1302.851"
       gradientUnits="userSpaceOnUse">
      <stop
         offset="0"
         stop-color="#3da4eb"
         id="stop1"
         style="stop-color:#126fb0;stop-opacity:1;" />
      <stop
         offset="1"
         stop-color="#196eae"
         id="stop8"
         style="stop-color:#0c3755;stop-opacity:1;" />
    </radialGradient>
    <radialGradient
       id="RadialGradient1"
       gradientTransform="matrix(0.033236,0,0,0.03837738,150.8927,10.5714)"
       cx="1546.7766"
       cy="1340.0753"
       fx="1546.7766"
       fy="1340.0753"
       r="1302.851"
       gradientUnits="userSpaceOnUse">
      <stop
         offset="0%"
         stop-color="#3da4eb"
         id="stop1-6" />
      <stop
         offset="100%"
         stop-color="#196eae"
         id="stop2-5" />
    </radialGradient>
    <radialGradient
       xlink:href="#radialGradient8"
       id="radialGradient1"
       gradientUnits="userSpaceOnUse"
       gradientTransform="matrix(0.033236,0,0,0.03837738,150.8927,14.5714)"
       cx="1546.7766"
       cy="1340.0753"
       fx="1546.7766"
       fy="1340.0753"
       r="1302.851" />
  </defs>
  <metadata
     id="metadata4">
    <rdf:RDF>
      <cc:Work
         rdf:about="">
        <dc:format>image/svg+xml</dc:format>
        <dc:type
           rdf:resource="http://purl.org/dc/dcmitype/StillImage" />
        <dc:creator>
          <cc:Agent>
            <dc:title>GNOME Design Team</dc:title>
          </cc:Agent>
        </dc:creator>
        <dc:source />
        <cc:license
           rdf:resource="http://creativecommons.org/licenses/by-sa/4.0/" />
        <dc:title>Adwaita Icon Template</dc:title>
        <dc:subject>
          <rdf:Bag />
        </dc:subject>
        <dc:date />
        <dc:rights>
          <cc:Agent>
            <dc:title />
          </cc:Agent>
        </dc:rights>
        <dc:publisher>
          <cc:Agent>
            <dc:title />
          </cc:Agent>
        </dc:publisher>
        <dc:identifier />
        <dc:relation />
        <dc:language />
        <dc:coverage />
        <dc:description />
        <dc:contributor>
          <cc:Agent>
            <dc:title />
          </cc:Agent>
        </dc:contributor>
      </cc:Work>
      <cc:License
         rdf:about="http://creativecommons.org/licenses/by-sa/4.0/">
        <cc:permits
           rdf:resource="http://creativecommons.org/ns#Reproduction" />
        <cc:permits
           rdf:resource="http://creativecommons.org/ns#Distribution" />
        <cc:requires
           rdf:resource="http://creativecommons.org/ns#Notice" />
        <cc:requires
           rdf:resource="http://creativecommons.org/ns#Attribution" />
        <cc:permits
           rdf:resource="http://creativecommons.org/ns#DerivativeWorks" />
        <cc:requires
           rdf:resource="http://creativecommons.org/ns#ShareAlike" />
      </cc:License>
    </rdf:RDF>
  </metadata>
  <g
     id="g8"
     transform="translate(-138.30145)">
    <path
       d="M 168.1431,21.2788 159,16 v 100 c 8.8787,-5.1259 17.7574,-10.252 26.6359,-15.3782 V 90.064 l -17.4926,10.0995 c 0,-26.2951 3e-4,-52.5891 0,-78.8847 z M 185.678,79.1971 V 41.9604 c 13.879,8.0133 27.7592,16.0265 41.6377,24.0398 -10.8315,6.2536 -21.663,12.5073 -32.4944,18.7607 V 95.3187 C 208.6998,87.3054 222.58,79.2922 236.4585,71.2789 l 9.1444,-5.2787 v -4 l -9.1444,-1.2788 C 219.5313,50.9486 202.6057,41.1757 185.678,31.4029 l -0.042,-0.024 -9.1433,-5.2788 c 0,19.4667 2e-4,38.9335 2e-4,58.4005 z m 23.3215,-13.4644 v -4 l -14.1782,-4.1873 v 16.3729 z"
       style="fill:url(#radialGradient1);fill-opacity:1;fill-rule:evenodd;stroke:none;stroke-width:0.0161135"
       id="path1" />
    <path
       d="M 168.1431,17.2788 159,12 c 0,33.334 0,66.6668 0,100 8.8787,-5.1259 17.7574,-10.252 26.6359,-15.3782 V 86.064 l -17.4926,10.0995 c 0,-26.2951 3e-4,-52.5891 0,-78.8847 z M 185.678,75.1971 V 37.9604 c 13.879,8.0133 27.7592,16.0265 41.6377,24.0398 -10.8315,6.2536 -21.663,12.5073 -32.4944,18.7607 V 91.3187 C 208.6998,83.3054 222.58,75.2922 236.4585,67.2789 l 9.1444,-5.2787 -9.1444,-5.2788 C 219.5313,46.9486 202.6057,37.1757 185.678,27.4029 l -0.042,-0.024 -9.1433,-5.2788 c 0,19.4667 2e-4,38.9335 2e-4,58.4005 z m 23.3215,-13.4644 -14.1782,-8.1873 v 16.3729 z"
       style="fill:url(#RadialGradient1);fill-opacity:1;fill-rule:evenodd;stroke:none;stroke-width:0.0161135"
       id="path14" />
  </g>
</svg>

<svg xmlns="http://www.w3.org/2000/svg" xmlns:xlink="http://www.w3.org/1999/xlink" width="128" height="128" style="display:inline" viewBox="0 0 128 128"><title>Adwaita Icon Template</title><defs><radialGradient id="a" cx="1546.777" cy="1340.075" r="1302.851" fx="1546.777" fy="1340.075" gradientTransform="matrix(.03324 0 0 .03838 150.893 10.571)" gradientUnits="userSpaceOnUse"><stop offset="0" stop-color="#3da4eb" style="stop-color:#126fb0;stop-opacity:1"/><stop offset="1" stop-color="#196eae" style="stop-color:#0c3755;stop-opacity:1"/></radialGradient><radialGradient id="c" cx="1546.777" cy="1340.075" r="1302.851" fx="1546.777" fy="1340.075" gradientTransform="matrix(.03324 0 0 .03838 150.893 10.571)" gradientUnits="userSpaceOnUse"><stop offset="0%" stop-color="#3da4eb"/><stop offset="100%" stop-color="#196eae"/></radialGradient><radialGradient xlink:href="#a" id="b" cx="1546.777" cy="1340.075" r="1302.851" fx="1546.777" fy="1340.075" gradientTransform="matrix(.03324 0 0 .03838 150.893 14.571)" gradientUnits="userSpaceOnUse"/></defs><path d="M168.143 21.279 159 16v100l26.636-15.378V90.064l-17.493 10.1zm17.535 57.918V41.96L227.316 66q-16.248 9.382-32.495 18.76V95.32l41.637-24.04L245.604 66v-4l-9.145-1.279-50.78-29.318-.042-.024-9.143-5.279v58.4zM209 65.733v-4l-14.179-4.188v16.373z" style="fill:url(#b);fill-opacity:1;fill-rule:evenodd;stroke:none;stroke-width:.0161135" transform="translate(-138.301)"/><path d="M168.143 17.279 159 12v100l26.636-15.378V86.064l-17.493 10.1zm17.535 57.918V37.96L227.316 62q-16.248 9.381-32.495 18.76V91.32l41.637-24.04L245.604 62l-9.145-5.279-50.78-29.318-.042-.024-9.143-5.279v58.4zM209 61.733l-14.179-8.188v16.373z" style="fill:url(#c);fill-opacity:1;fill-rule:evenodd;stroke:none;stroke-width:.0161135" transform="translate(-138.301)"/></svg>
